;FLAVOR:Marlin
;TIME:3816
;Filament used: 3.55292m
;Layer height: 0.2
;MINX:125.9
;MINY:152.4
;MINZ:0.3
;MAXX:214.1
;MAXY:187.6
;MAXZ:11.9
;TARGET_MACHINE.NAME:Unknown
;Generated with Cura_SteamEngine 5.5.0
M140 S60
M105
M190 S60
M104 S200
M105
M109 S200
M82 ;absolute extrusion mode
G28 ;Home
;G1 Z15.0 F6000 ;Move the platform down 15mm
;Prime the extruder
;G92 E0
;G1 F200 E3
;G92 E0
G21
G90
M82
G92 E0
G92 E0
G1 F1500 E-6.5
;LAYER_COUNT:59
;LAYER:0
M107
G1 F600 Z1.3
G0 F3600 X127.613 Y153.985 Z1.3
;TYPE:SKIRT
G1 F600 Z0.3
G1 F1500 E0
G1 X128.142 Y153.569 E0.03357
G1 X128.917 Y153.073 E0.07948
G1 X129.533 Y152.768 E0.11377
G1 X130.481 Y152.509 E0.1628
G1 X131.283 Y152.402 E0.20317
G1 X208.028 Y152.4 E4.03199
G1 X208.754 Y152.411 E4.06822
G1 X209.428 Y152.479 E4.10201
G1 X210.204 Y152.685 E4.14207
G1 X210.772 Y152.89 E4.1722
G1 X211.51 Y153.299 E4.21429
G1 X212.028 Y153.658 E4.24573
G1 X212.631 Y154.249 E4.28786
G1 X212.997 Y154.68 E4.31607
G1 X213.389 Y155.31 E4.35309
G1 X213.674 Y155.921 E4.38672
G1 X213.861 Y156.468 E4.41556
G1 X214.021 Y157.195 E4.4527
G1 X214.089 Y157.935 E4.48978
G1 X214.1 Y158.668 E4.52635
G1 X214.1 Y181.345 E5.65771
G1 X214.09 Y182.038 E5.69229
G1 X214.024 Y182.785 E5.7297
G1 X213.882 Y183.514 E5.76675
G1 X213.588 Y184.311 E5.80914
G1 X213.184 Y185.031 E5.85032
G1 X212.808 Y185.563 E5.88283
G1 X212.259 Y186.122 E5.92192
G1 X211.821 Y186.495 E5.95062
G1 X211.033 Y186.964 E5.99637
G1 X210.354 Y187.252 E6.03316
G1 X209.764 Y187.43 E6.06391
G1 X209.125 Y187.57 E6.09655
G1 X207.671 Y187.6 E6.1691
G1 X132.143 Y187.6 E9.93721
G1 X131.167 Y187.584 E9.98591
G1 X130.247 Y187.431 E10.03244
G1 X129.757 Y187.307 E10.05765
G1 X129.04 Y187.01 E10.09637
G1 X128.548 Y186.744 E10.12428
G1 X128.151 Y186.458 E10.14869
G1 X127.493 Y185.869 E10.19275
G1 X127.1 Y185.446 E10.22155
G1 X126.612 Y184.692 E10.26636
G1 X126.309 Y184.035 E10.30246
G1 X126.147 Y183.56 E10.32749
G1 X125.976 Y182.786 E10.36704
G1 X125.911 Y182.053 E10.40375
G1 X125.9 Y181.303 E10.44118
G1 X125.9 Y158.651 E11.57129
G1 X125.912 Y157.916 E11.60796
G1 X125.965 Y157.289 E11.63935
G1 X126.148 Y156.471 E11.68117
G1 X126.371 Y155.832 E11.71494
G1 X126.669 Y155.151 E11.75203
G1 X127.206 Y154.437 E11.7966
G1 X127.613 Y153.985 E11.82694
G0 F3600 X127.861 Y154.299
G1 F1500 X128.358 Y153.906 E11.85855
G1 X129.133 Y153.41 E11.90446
G1 X129.675 Y153.144 E11.93458
G1 X130.586 Y152.895 E11.9817
G1 X131.283 Y152.802 E12.01678
G1 X208.022 Y152.8 E15.8453
G1 X208.748 Y152.811 E15.88153
G1 X209.325 Y152.866 E15.91044
G1 X210.101 Y153.072 E15.9505
G1 X210.578 Y153.24 E15.97573
G1 X211.316 Y153.649 E16.01783
G1 X211.799 Y153.986 E16.04721
G1 X212.328 Y154.51 E16.08436
G1 X212.658 Y154.893 E16.10958
G1 X213.026 Y155.479 E16.1441
G1 X213.311 Y156.09 E16.17774
G1 X213.471 Y156.556 E16.20232
G1 X213.623 Y157.232 E16.23689
G1 X213.689 Y157.941 E16.27241
G1 X213.7 Y158.674 E16.30898
G1 X213.7 Y181.339 E17.43975
G1 X213.69 Y182.032 E17.47432
G1 X213.631 Y182.709 E17.50823
G1 X213.489 Y183.438 E17.54528
G1 X213.239 Y184.116 E17.58133
G1 X212.855 Y184.803 E17.6206
G1 X212.522 Y185.283 E17.64974
G1 X211.996 Y185.82 E17.68725
G1 X211.615 Y186.152 E17.71246
G1 X210.876 Y186.596 E17.75547
G1 X210.238 Y186.869 E17.79009
G1 X209.678 Y187.039 E17.81929
G1 X209.076 Y187.171 E17.85004
G1 X207.663 Y187.2 E17.92055
G1 X132.15 Y187.2 E21.6879
G1 X131.174 Y187.184 E21.7366
G1 X130.345 Y187.043 E21.77856
G1 X129.855 Y186.919 E21.80377
G1 X129.228 Y186.657 E21.83768
G1 X128.782 Y186.419 E21.8629
G1 X128.385 Y186.133 E21.88731
G1 X127.783 Y185.593 E21.92765
G1 X127.435 Y185.227 E21.95285
G1 X126.975 Y184.523 E21.99481
G1 X126.688 Y183.906 E22.02876
G1 X126.526 Y183.431 E22.05379
G1 X126.374 Y182.75 E22.08861
G1 X126.311 Y182.047 E22.12382
G1 X126.3 Y181.297 E22.16124
G1 X126.3 Y158.657 E23.29075
G1 X126.311 Y157.95 E23.32603
G1 X126.364 Y157.323 E23.35742
G1 X126.526 Y156.603 E23.39424
G1 X126.749 Y155.964 E23.42801
G1 X127.015 Y155.357 E23.46107
G1 X127.526 Y154.678 E23.50347
G1 X127.861 Y154.299 E23.5287
G1 F1500 E17.0287
G1 F600 Z1.3
;MESH:lmc_bot.stl
G0 F3600 X131.542 Y183.4 Z1.3
;TYPE:WALL-INNER
G1 F600 Z0.3
G1 F1500 E23.5287
G1 X208.618 Y183.399 E27.37404
G1 X209.083 Y183.256 E27.39831
G1 X209.346 Y183.108 E27.41337
G1 X209.608 Y182.846 E27.43185
G1 X209.79 Y182.531 E27.45
G1 X209.898 Y181.979 E27.47807
G1 X209.899 Y158.039 E28.67244
G1 X209.865 Y157.737 E28.6876
G1 X209.74 Y157.369 E28.70699
G1 X209.614 Y157.16 E28.71916
G1 X209.338 Y156.886 E28.73857
G1 X209.049 Y156.719 E28.75522
G1 X208.6 Y156.6 E28.77839
G1 X131.385 Y156.6 E32.63067
G1 X131.086 Y156.674 E32.64603
G1 X130.508 Y157.03 E32.6799
G1 X130.293 Y157.305 E32.69732
G1 X130.136 Y157.739 E32.72034
G1 X130.102 Y158.021 E32.73451
G1 X130.101 Y181.961 E33.92888
G1 X130.135 Y182.262 E33.944
G1 X130.256 Y182.624 E33.96304
G1 X130.379 Y182.826 E33.97484
G1 X130.83 Y183.222 E34.00478
G1 X131.037 Y183.313 E34.01606
G1 X131.542 Y183.4 E34.04163
G0 F3600 X131.508 Y183.8
;TYPE:WALL-OUTER
G1 F1500 X208.678 Y183.799 E37.89165
G1 X209.241 Y183.626 E37.92104
G1 X209.59 Y183.43 E37.94101
G1 X209.928 Y183.092 E37.96486
G1 X210.16 Y182.689 E37.98806
G1 X210.257 Y182.359 E38.00522
G1 X210.298 Y182.002 E38.02314
G1 X210.299 Y158.017 E39.21976
G1 X210.258 Y157.649 E39.23823
G1 X210.105 Y157.199 E39.26195
G1 X209.93 Y156.91 E39.2788
G1 X209.583 Y156.566 E39.30318
G1 X209.203 Y156.346 E39.32509
G1 X208.652 Y156.2 E39.35352
G1 X131.337 Y156.2 E43.21078
G1 X130.93 Y156.3 E43.23169
G1 X130.236 Y156.727 E43.27235
G1 X129.939 Y157.109 E43.29649
G1 X129.744 Y157.647 E43.32504
G1 X129.702 Y157.998 E43.34267
G1 X129.701 Y181.983 E44.53929
G1 X129.742 Y182.349 E44.55766
G1 X129.891 Y182.794 E44.58108
G1 X130.069 Y183.086 E44.59814
G1 X130.612 Y183.564 E44.63423
G1 X130.921 Y183.699 E44.65105
G1 X131.508 Y183.8 E44.68077
G0 F3600 X131.708 Y183.8
G0 X131.571 Y183.02
;TYPE:SKIN
G1 F1500 X131.039 Y182.899 E44.70799
G1 X130.672 Y182.576 E44.73238
G1 X130.508 Y182.177 E44.7539
G1 X130.481 Y181.934 E44.7661
G1 X130.482 Y158.05 E45.95768
G1 X130.51 Y157.823 E45.96909
G1 X130.627 Y157.497 E45.98637
G1 X130.768 Y157.316 E45.99781
G1 X131.232 Y157.031 E46.02498
G1 X131.435 Y156.98 E46.03542
G1 X208.554 Y156.98 E49.88291
G1 X208.897 Y157.072 E49.90062
G1 X209.103 Y157.191 E49.91249
G1 X209.311 Y157.397 E49.9271
G1 X209.491 Y157.821 E49.95008
G1 X209.518 Y158.066 E49.96237
G1 X209.518 Y181.951 E51.154
G1 X209.432 Y182.388 E51.17622
G1 X209.305 Y182.609 E51.18894
G1 X209.111 Y182.804 E51.20266
G1 X208.934 Y182.903 E51.21278
G1 X208.56 Y183.018 E51.2323
G1 X131.571 Y183.02 E55.0733
G0 F3600 X130.736 Y182.213
G1 F1500 X131.276 Y182.753 E55.1114
G0 F3600 X131.907 Y182.818
G1 F1500 X130.681 Y181.592 E55.1979
G0 F3600 X130.681 Y181.027
G1 F1500 X132.472 Y182.818 E55.32426
G0 F3600 X133.038 Y182.818
G1 F1500 X130.681 Y180.461 E55.49056
G0 F3600 X130.681 Y179.895
G1 F1500 X133.604 Y182.818 E55.6968
G0 F3600 X134.169 Y182.818
G1 F1500 X130.681 Y179.33 E55.94289
G0 F3600 X130.681 Y178.764
G1 F1500 X134.735 Y182.818 E56.22893
G0 F3600 X135.301 Y182.818
G1 F1500 X130.681 Y178.198 E56.55489
G0 F3600 X130.681 Y177.633
G1 F1500 X135.867 Y182.818 E56.92076
G0 F3600 X136.432 Y182.818
G1 F1500 X130.681 Y177.067 E57.32652
G0 F3600 X130.681 Y176.501
G1 F1500 X136.998 Y182.818 E57.77222
G0 F3600 X137.564 Y182.818
G1 F1500 X130.681 Y175.935 E58.25785
G0 F3600 X130.681 Y175.37
G1 F1500 X138.129 Y182.818 E58.78335
G0 F3600 X138.695 Y182.818
G1 F1500 X130.681 Y174.804 E59.34878
G0 F3600 X130.681 Y174.238
G1 F1500 X139.261 Y182.818 E59.95414
G0 F3600 X139.826 Y182.818
G1 F1500 X130.681 Y173.673 E60.59937
G0 F3600 X130.681 Y173.107
G1 F1500 X140.392 Y182.818 E61.28454
G0 F3600 X140.958 Y182.818
G1 F1500 X130.681 Y172.541 E62.00963
G0 F3600 X130.681 Y171.976
G1 F1500 X141.523 Y182.818 E62.7746
G0 F3600 X142.089 Y182.818
G1 F1500 X130.681 Y171.41 E63.57949
G0 F3600 X130.681 Y170.844
G1 F1500 X142.655 Y182.818 E64.42432
G0 F3600 X143.22 Y182.818
G1 F1500 X130.681 Y170.279 E65.30902
G0 F3600 X130.681 Y169.713
G1 F1500 X143.786 Y182.818 E66.23365
G0 F3600 X144.352 Y182.818
G1 F1500 X130.681 Y169.147 E67.19821
G0 F3600 X130.681 Y168.582
G1 F1500 X144.917 Y182.818 E68.20264
G0 F3600 X145.483 Y182.818
G1 F1500 X130.681 Y168.016 E69.247
G0 F3600 X130.681 Y167.45
G1 F1500 X146.049 Y182.818 E70.33129
G0 F3600 X146.615 Y182.818
G1 F1500 X130.681 Y166.884 E71.45552
G0 F3600 X130.681 Y166.319
G1 F1500 X147.18 Y182.818 E72.61961
G0 F3600 X147.746 Y182.818
G1 F1500 X130.681 Y165.753 E73.82364
G0 F3600 X130.681 Y165.187
G1 F1500 X148.312 Y182.818 E75.06761
G0 F3600 X148.877 Y182.818
G1 F1500 X130.681 Y164.622 E76.35143
G0 F3600 X130.681 Y164.056
G1 F1500 X149.443 Y182.818 E77.67519
G0 F3600 X150.009 Y182.818
G1 F1500 X130.681 Y163.49 E79.03889
G0 F3600 X130.681 Y162.925
G1 F1500 X150.574 Y182.818 E80.44245
G0 F3600 X151.14 Y182.818
G1 F1500 X130.681 Y162.359 E81.88594
G0 F3600 X130.681 Y161.793
G1 F1500 X151.706 Y182.818 E83.36937
G0 F3600 X152.271 Y182.818
G1 F1500 X130.681 Y161.228 E84.89266
G0 F3600 X130.681 Y160.662
G1 F1500 X152.837 Y182.818 E86.45588
G0 F3600 X153.403 Y182.818
G1 F1500 X130.681 Y160.096 E88.05904
G0 F3600 X130.681 Y159.531
G1 F1500 X153.968 Y182.818 E89.70207
G0 F3600 X154.534 Y182.818
G1 F1500 X130.681 Y158.965 E91.38502
G0 F3600 X130.681 Y158.399
G1 F1500 X155.1 Y182.818 E93.10792
G0 F3600 X155.666 Y182.818
G1 F1500 X130.707 Y157.86 E94.86887
G0 F3600 X130.892 Y157.479
G1 F1500 X156.231 Y182.818 E96.65668
G0 F3600 X156.797 Y182.818
G1 F1500 X131.239 Y157.261 E98.4599
G0 F3600 X131.724 Y157.179
G1 F1500 X157.362 Y182.818 E100.26883
G0 F3600 X157.928 Y182.818
G1 F1500 X132.289 Y157.179 E102.0778
G0 F3600 X132.855 Y157.179
G1 F1500 X158.493 Y182.818 E103.88673
G0 F3600 X159.059 Y182.818
G1 F1500 X133.421 Y157.179 E105.69567
G0 F3600 X133.986 Y157.179
G1 F1500 X159.625 Y182.818 E107.50464
G0 F3600 X160.19 Y182.818
G1 F1500 X134.552 Y157.179 E109.31357
G0 F3600 X135.118 Y157.179
G1 F1500 X160.756 Y182.818 E111.12251
G0 F3600 X161.322 Y182.818
G1 F1500 X135.683 Y157.179 E112.93148
G0 F3600 X136.249 Y157.179
G1 F1500 X161.887 Y182.818 E114.74041
G0 F3600 X162.453 Y182.818
G1 F1500 X136.815 Y157.179 E116.54935
G0 F3600 X137.38 Y157.179
G1 F1500 X163.019 Y182.818 E118.35832
G0 F3600 X163.584 Y182.818
G1 F1500 X137.946 Y157.179 E120.16725
G0 F3600 X138.512 Y157.179
G1 F1500 X164.15 Y182.818 E121.97619
G0 F3600 X164.716 Y182.818
G1 F1500 X139.078 Y157.179 E123.78512
G0 F3600 X139.643 Y157.179
G1 F1500 X165.281 Y182.818 E125.59406
G0 F3600 X165.847 Y182.818
G1 F1500 X140.209 Y157.179 E127.40299
G0 F3600 X140.775 Y157.179
G1 F1500 X166.413 Y182.818 E129.21193
G0 F3600 X166.979 Y182.818
G1 F1500 X141.34 Y157.179 E131.0209
G0 F3600 X141.906 Y157.179
G1 F1500 X167.544 Y182.818 E132.82983
G0 F3600 X168.11 Y182.818
G1 F1500 X142.472 Y157.179 E134.63877
G0 F3600 X143.037 Y157.179
G1 F1500 X168.676 Y182.818 E136.44773
G0 F3600 X169.241 Y182.818
G1 F1500 X143.603 Y157.179 E138.25667
G0 F3600 X144.169 Y157.179
G1 F1500 X169.807 Y182.818 E140.0656
G0 F3600 X170.373 Y182.818
G1 F1500 X144.734 Y157.179 E141.87457
G0 F3600 X145.3 Y157.179
G1 F1500 X170.938 Y182.818 E143.68351
G0 F3600 X171.504 Y182.818
G1 F1500 X145.866 Y157.179 E145.49244
G0 F3600 X146.431 Y157.179
G1 F1500 X172.07 Y182.818 E147.30141
G0 F3600 X172.635 Y182.818
G1 F1500 X146.997 Y157.179 E149.11035
G0 F3600 X147.563 Y157.179
G1 F1500 X173.201 Y182.818 E150.91928
G0 F3600 X173.767 Y182.818
G1 F1500 X148.128 Y157.179 E152.72825
G0 F3600 X148.694 Y157.179
G1 F1500 X174.332 Y182.818 E154.53719
G0 F3600 X174.898 Y182.818
G1 F1500 X149.26 Y157.179 E156.34612
G0 F3600 X149.826 Y157.179
G1 F1500 X175.464 Y182.818 E158.15506
G0 F3600 X176.029 Y182.818
G1 F1500 X150.391 Y157.179 E159.96399
G0 F3600 X150.957 Y157.179
G1 F1500 X176.595 Y182.818 E161.77293
G0 F3600 X177.161 Y182.818
G1 F1500 X151.523 Y157.179 E163.58186
G0 F3600 X152.088 Y157.179
G1 F1500 X177.727 Y182.818 E165.39083
G0 F3600 X178.292 Y182.818
G1 F1500 X152.654 Y157.179 E167.19977
G0 F3600 X153.22 Y157.179
G1 F1500 X178.858 Y182.818 E169.0087
G0 F3600 X179.424 Y182.818
G1 F1500 X153.785 Y157.179 E170.81767
G0 F3600 X154.351 Y157.179
G1 F1500 X179.989 Y182.818 E172.6266
G0 F3600 X180.555 Y182.818
G1 F1500 X154.917 Y157.179 E174.43554
G0 F3600 X155.482 Y157.179
G1 F1500 X181.121 Y182.818 E176.24451
G0 F3600 X181.686 Y182.818
G1 F1500 X156.048 Y157.179 E178.05344
G0 F3600 X156.614 Y157.179
G1 F1500 X182.252 Y182.818 E179.86238
G0 F3600 X182.818 Y182.818
G1 F1500 X157.179 Y157.179 E181.67135
G0 F3600 X157.745 Y157.179
G1 F1500 X183.383 Y182.817 E183.48025
G0 F3600 X183.948 Y182.817
G1 F1500 X158.311 Y157.179 E185.28911
G0 F3600 X158.876 Y157.179
G1 F1500 X184.514 Y182.817 E187.09801
G0 F3600 X185.08 Y182.817
G1 F1500 X159.442 Y157.179 E188.90691
G0 F3600 X160.008 Y157.179
G1 F1500 X185.645 Y182.817 E190.71577
G0 F3600 X186.211 Y182.817
G1 F1500 X160.574 Y157.179 E192.52464
G0 F3600 X161.139 Y157.179
G1 F1500 X186.777 Y182.817 E194.33354
G0 F3600 X187.342 Y182.817
G1 F1500 X161.705 Y157.179 E196.1424
G0 F3600 X162.271 Y157.179
G1 F1500 X187.908 Y182.817 E197.95127
G0 F3600 X188.474 Y182.817
G1 F1500 X162.836 Y157.179 E199.76017
G0 F3600 X163.402 Y157.179
G1 F1500 X189.04 Y182.817 E201.56906
G0 F3600 X189.605 Y182.817
G1 F1500 X163.968 Y157.179 E203.37793
G0 F3600 X164.533 Y157.179
G1 F1500 X190.171 Y182.817 E205.18683
G0 F3600 X190.737 Y182.817
G1 F1500 X165.099 Y157.179 E206.99573
G0 F3600 X165.665 Y157.179
G1 F1500 X191.302 Y182.817 E208.80459
G0 F3600 X191.868 Y182.817
G1 F1500 X166.23 Y157.179 E210.61349
G0 F3600 X166.796 Y157.179
G1 F1500 X192.434 Y182.817 E212.42239
G0 F3600 X192.999 Y182.817
G1 F1500 X167.362 Y157.179 E214.23125
G0 F3600 X167.927 Y157.179
G1 F1500 X193.565 Y182.817 E216.04015
G0 F3600 X194.131 Y182.817
G1 F1500 X168.493 Y157.179 E217.84905
G0 F3600 X169.059 Y157.179
G1 F1500 X194.696 Y182.817 E219.65792
G0 F3600 X195.262 Y182.817
G1 F1500 X169.625 Y157.179 E221.46678
G0 F3600 X170.19 Y157.179
G1 F1500 X195.828 Y182.817 E223.27568
G0 F3600 X196.393 Y182.817
G1 F1500 X170.756 Y157.179 E225.08455
G0 F3600 X171.322 Y157.179
G1 F1500 X196.959 Y182.817 E226.89341
G0 F3600 X197.525 Y182.817
G1 F1500 X171.887 Y157.179 E228.70231
G0 F3600 X172.453 Y157.179
G1 F1500 X198.091 Y182.817 E230.51121
G0 F3600 X198.656 Y182.817
G1 F1500 X173.019 Y157.179 E232.32007
G0 F3600 X173.584 Y157.179
G1 F1500 X199.222 Y182.817 E234.12897
G0 F3600 X199.788 Y182.817
G1 F1500 X174.15 Y157.179 E235.93787
G0 F3600 X174.716 Y157.179
G1 F1500 X200.353 Y182.817 E237.74673
G0 F3600 X200.919 Y182.817
G1 F1500 X175.281 Y157.179 E239.55563
G0 F3600 X175.847 Y157.179
G1 F1500 X201.485 Y182.817 E241.36453
G0 F3600 X202.05 Y182.817
G1 F1500 X176.413 Y157.179 E243.1734
G0 F3600 X176.978 Y157.179
G1 F1500 X202.616 Y182.817 E244.9823
G0 F3600 X203.182 Y182.817
G1 F1500 X177.544 Y157.179 E246.7912
G0 F3600 X178.11 Y157.179
G1 F1500 X203.747 Y182.817 E248.60006
G0 F3600 X204.313 Y182.817
G1 F1500 X178.675 Y157.179 E250.40896
G0 F3600 X179.241 Y157.179
G1 F1500 X204.879 Y182.817 E252.21786
G0 F3600 X205.444 Y182.817
G1 F1500 X179.807 Y157.179 E254.02672
G0 F3600 X180.373 Y157.179
G1 F1500 X206.01 Y182.817 E255.83559
G0 F3600 X206.576 Y182.817
G1 F1500 X180.938 Y157.179 E257.64449
G0 F3600 X181.504 Y157.179
G1 F1500 X207.141 Y182.817 E259.45335
G0 F3600 X207.707 Y182.817
G1 F1500 X182.07 Y157.179 E261.26222
G0 F3600 X182.635 Y157.179
G1 F1500 X208.273 Y182.817 E263.07111
G0 F3600 X208.753 Y182.731
G1 F1500 X183.201 Y157.179 E264.87395
G0 F3600 X183.767 Y157.179
G1 F1500 X209.109 Y182.521 E266.66196
G0 F3600 X209.279 Y182.126
G1 F1500 X184.332 Y157.179 E268.42211
G0 F3600 X184.898 Y157.179
G1 F1500 X209.317 Y181.598 E270.145
G0 F3600 X209.317 Y181.032
G1 F1500 X185.464 Y157.179 E271.82796
G0 F3600 X186.029 Y157.179
G1 F1500 X209.317 Y180.467 E273.47105
G0 F3600 X209.317 Y179.901
G1 F1500 X186.595 Y157.179 E275.07421
G0 F3600 X187.161 Y157.179
G1 F1500 X209.317 Y179.335 E276.63744
G0 F3600 X209.317 Y178.77
G1 F1500 X187.726 Y157.179 E278.1608
G0 F3600 X188.292 Y157.179
