;FLAVOR:Marlin
;TIME:2507
;Filament used: 2.19169m
;Layer height: 0.2
;MINX:125.9
;MINY:152.4
;MINZ:0.3
;MAXX:214.1
;MAXY:187.6
;MAXZ:3.7
;TARGET_MACHINE.NAME:Unknown
;Generated with Cura_SteamEngine 5.5.0
M140 S60
M105
M190 S60
M104 S200
M105
M109 S200
M82 ;absolute extrusion mode
G28 ;Home
;G1 Z15.0 F6000 ;Move the platform down 15mm
;Prime the extruder
;G92 E0
;G1 F200 E3
;G92 E0
G21
G90
M82
G92 E0
G92 E0
G1 F1500 E-6.5
;LAYER_COUNT:18
;LAYER:0
M107
G1 F600 Z1.3
G0 F3600 X128.189 Y153.485 Z1.3
;TYPE:SKIRT
G1 F600 Z0.3
G1 F1500 E0
G1 X128.947 Y153.041 E0.04383
G1 X129.542 Y152.751 E0.07685
G1 X130.466 Y152.516 E0.12442
G1 X131.258 Y152.411 E0.16427
G1 X131.913 Y152.4 E0.19696
G1 X208.02 Y152.4 E3.99395
G1 X208.768 Y152.413 E4.03127
G1 X209.558 Y152.521 E4.07105
G1 X210.177 Y152.68 E4.10294
G1 X210.717 Y152.87 E4.1315
G1 X211.473 Y153.28 E4.17441
G1 X212.041 Y153.674 E4.20889
G1 X212.561 Y154.177 E4.24499
G1 X213.01 Y154.683 E4.27874
G1 X213.455 Y155.438 E4.32246
G1 X213.745 Y156.033 E4.35548
G1 X213.98 Y156.94 E4.40223
G1 X214.086 Y157.567 E4.43395
G1 X214.1 Y158.398 E4.47542
G1 X214.1 Y181.486 E5.62728
G1 X214.089 Y182.265 E5.66615
G1 X214.019 Y182.956 E5.7008
G1 X213.788 Y183.787 E5.74383
G1 X213.587 Y184.322 E5.77234
G1 X213.16 Y185.07 E5.81531
G1 X212.712 Y185.655 E5.85208
G1 X212.299 Y186.084 E5.88179
G1 X211.813 Y186.512 E5.91409
G1 X211.085 Y186.942 E5.95628
G1 X210.46 Y187.248 E5.99099
G1 X209.533 Y187.484 E6.03872
G1 X208.742 Y187.589 E6.07853
G1 X208.087 Y187.6 E6.11121
G1 X131.98 Y187.6 E9.9082
G1 X131.232 Y187.587 E9.94553
G1 X130.442 Y187.479 E9.98531
G1 X129.823 Y187.32 E10.01719
G1 X129.283 Y187.13 E10.04575
G1 X128.527 Y186.72 E10.08866
G1 X128.011 Y186.368 E10.11982
G1 X127.416 Y185.799 E10.16089
G1 X126.988 Y185.313 E10.1932
G1 X126.558 Y184.585 E10.23539
G1 X126.251 Y183.96 E10.27013
G1 X126.016 Y183.035 E10.31774
G1 X125.911 Y182.239 E10.3578
G1 X125.9 Y181.552 E10.39208
G1 X125.9 Y158.447 E11.54479
G1 X125.911 Y157.766 E11.57877
G1 X126.023 Y156.931 E11.6208
G1 X126.172 Y156.349 E11.65077
G1 X126.372 Y155.779 E11.68091
G1 X126.78 Y155.027 E11.72359
G1 X127.132 Y154.511 E11.75476
G1 X127.701 Y153.916 E11.79583
G1 X128.189 Y153.485 E11.82831
G0 F3600 X128.425 Y153.811
G1 F1500 X127.966 Y154.216 E11.85885
G1 X127.462 Y154.737 E11.89502
G1 X127.132 Y155.218 E11.92412
G1 X126.724 Y155.97 E11.9668
G1 X126.56 Y156.448 E11.99201
G1 X126.411 Y157.03 E12.02199
G1 X126.311 Y157.772 E12.05934
G1 X126.3 Y158.453 E12.09332
G1 X126.3 Y181.546 E13.24543
G1 X126.311 Y182.233 E13.27971
G1 X126.412 Y182.981 E13.31737
G1 X126.628 Y183.821 E13.36064
G1 X126.903 Y184.382 E13.39181
G1 X127.313 Y185.077 E13.43207
G1 X127.716 Y185.534 E13.46247
G1 X128.237 Y186.038 E13.49863
G1 X128.718 Y186.368 E13.52773
G1 X129.474 Y186.778 E13.57064
G1 X129.952 Y186.941 E13.59584
G1 X130.541 Y187.091 E13.62616
G1 X131.285 Y187.19 E13.6636
G1 X131.986 Y187.2 E13.69858
G1 X208.08 Y187.2 E17.49493
G1 X208.735 Y187.189 E17.52761
G1 X209.479 Y187.088 E17.56507
G1 X210.321 Y186.871 E17.60845
G1 X210.882 Y186.597 E17.6396
G1 X211.577 Y186.187 E17.67985
G1 X212.034 Y185.784 E17.71025
G1 X212.394 Y185.412 E17.73608
G1 X212.842 Y184.827 E17.77284
G1 X213.239 Y184.125 E17.81307
G1 X213.412 Y183.65 E17.8383
G1 X213.634 Y182.849 E17.87976
G1 X213.689 Y182.259 E17.90933
G1 X213.7 Y181.48 E17.9482
G1 X213.7 Y158.405 E19.09941
G1 X213.686 Y157.574 E19.14088
G1 X213.586 Y157.01 E19.16945
G1 X213.368 Y156.174 E19.21256
G1 X213.095 Y155.613 E19.24368
G1 X212.686 Y154.92 E19.28383
G1 X212.283 Y154.465 E19.31415
G1 X211.763 Y153.962 E19.35025
G1 X211.282 Y153.632 E19.37935
G1 X210.526 Y153.222 E19.42226
G1 X210.048 Y153.059 E19.44745
G1 X209.459 Y152.909 E19.47777
G1 X208.715 Y152.81 E19.51522
G1 X208.014 Y152.8 E19.5502
G1 X131.92 Y152.8 E23.34654
G1 X131.265 Y152.811 E23.37922
G1 X130.52 Y152.912 E23.41673
G1 X129.683 Y153.128 E23.45986
G1 X129.122 Y153.401 E23.49099
G1 X128.425 Y153.811 E23.53133
G1 F1500 E17.03133
G1 F600 Z1.3
;MESH:top without text.stl
G0 F3600 X208.595 Y183.4 Z1.3
;TYPE:WALL-INNER
G1 F600 Z0.3
G1 F1500 E23.53133
G1 X209.04 Y183.285 E23.55426
G1 X209.346 Y183.108 E23.5719
G1 X209.608 Y182.846 E23.59038
G1 X209.785 Y182.539 E23.60806
G1 X209.899 Y182.099 E23.63074
G1 X209.899 Y157.904 E24.83783
G1 X209.785 Y157.46 E24.8607
G1 X209.608 Y157.154 E24.87834
G1 X209.346 Y156.892 E24.89682
G1 X209.04 Y156.715 E24.91446
G1 X208.595 Y156.601 E24.93738
G1 X131.405 Y156.6 E28.7884
G1 X130.96 Y156.715 E28.81133
G1 X130.654 Y156.892 E28.82897
G1 X130.392 Y157.154 E28.84745
G1 X130.215 Y157.461 E28.86513
G1 X130.101 Y157.9 E28.88776
G1 X130.101 Y182.095 E30.09486
G1 X130.215 Y182.54 E30.11777
G1 X130.392 Y182.846 E30.13541
G1 X130.654 Y183.108 E30.1539
G1 X130.96 Y183.285 E30.17153
G1 X131.405 Y183.399 E30.19445
G1 X208.595 Y183.4 E34.04547
G0 F3600 X208.646 Y183.8
;TYPE:WALL-OUTER
G1 F1500 X209.192 Y183.659 E34.07361
G1 X209.592 Y183.428 E34.09665
G1 X209.928 Y183.092 E34.12036
G1 X210.159 Y182.692 E34.1434
G1 X210.299 Y182.15 E34.17133
G1 X210.299 Y157.853 E35.38351
G1 X210.159 Y157.308 E35.41159
G1 X209.928 Y156.908 E35.43463
G1 X209.592 Y156.572 E35.45834
G1 X209.192 Y156.341 E35.48138
G1 X208.646 Y156.201 E35.5095
G1 X131.354 Y156.2 E39.36562
G1 X130.808 Y156.341 E39.39375
G1 X130.408 Y156.572 E39.4168
G1 X130.072 Y156.908 E39.4405
G1 X129.841 Y157.308 E39.46355
G1 X129.701 Y157.849 E39.49143
G1 X129.701 Y182.146 E40.70361
G1 X129.841 Y182.692 E40.73173
G1 X130.072 Y183.092 E40.75478
G1 X130.408 Y183.428 E40.77848
G1 X130.808 Y183.659 E40.80153
G1 X131.354 Y183.799 E40.82965
G1 X208.646 Y183.8 E44.68576
G0 F3600 X208.839 Y183.75
G0 X208.545 Y183.019
;TYPE:SKIN
G1 F1500 X131.455 Y183.019 E48.5318
G1 X131.105 Y182.929 E48.54983
G1 X130.889 Y182.804 E48.56228
G1 X130.696 Y182.611 E48.5759
G1 X130.57 Y182.394 E48.58841
G1 X130.481 Y182.045 E48.60638
G1 X130.482 Y157.951 E49.80844
G1 X130.57 Y157.605 E49.82625
G1 X130.696 Y157.39 E49.83868
G1 X130.89 Y157.196 E49.85237
G1 X131.106 Y157.07 E49.86485
G1 X131.456 Y156.981 E49.88286
G1 X208.545 Y156.981 E53.72885
G1 X208.894 Y157.07 E53.74682
G1 X209.111 Y157.196 E53.75934
G1 X209.304 Y157.389 E53.77295
G1 X209.43 Y157.606 E53.78547
G1 X209.519 Y157.955 E53.80344
G1 X209.519 Y182.048 E55.00545
G1 X209.43 Y182.394 E55.02327
G1 X209.304 Y182.61 E55.03575
G1 X209.11 Y182.804 E55.04943
G1 X208.894 Y182.93 E55.06191
G1 X208.545 Y183.019 E55.07988
G0 F3600 X208.706 Y157.228
G1 F1500 X209.271 Y157.794 E55.11978
G0 F3600 X209.318 Y158.406
G1 F1500 X208.092 Y157.18 E55.20628
G0 F3600 X207.526 Y157.18
G1 F1500 X209.318 Y158.972 E55.33271
G0 F3600 X209.318 Y159.538
G1 F1500 X206.96 Y157.18 E55.49908
G0 F3600 X206.395 Y157.18
G1 F1500 X209.318 Y160.103 E55.70532
G0 F3600 X209.318 Y160.669
G1 F1500 X205.829 Y157.18 E55.95148
G0 F3600 X205.263 Y157.18
G1 F1500 X209.318 Y161.235 E56.23759
G0 F3600 X209.318 Y161.8
G1 F1500 X204.698 Y157.18 E56.56355
G0 F3600 X204.132 Y157.18
G1 F1500 X209.318 Y162.366 E56.92945
G0 F3600 X209.318 Y162.932
G1 F1500 X203.566 Y157.18 E57.33529
G0 F3600 X203.001 Y157.18
G1 F1500 X209.318 Y163.497 E57.78099
G0 F3600 X209.318 Y164.063
G1 F1500 X202.435 Y157.18 E58.26662
G0 F3600 X201.869 Y157.18
G1 F1500 X209.318 Y164.629 E58.79219
G0 F3600 X209.318 Y165.194
G1 F1500 X201.304 Y157.18 E59.35762
G0 F3600 X200.738 Y157.18
G1 F1500 X209.318 Y165.76 E59.96298
G0 F3600 X209.318 Y166.326
G1 F1500 X200.172 Y157.18 E60.60828
G0 F3600 X199.607 Y157.18
G1 F1500 X209.318 Y166.892 E61.29348
G0 F3600 X209.318 Y167.457
G1 F1500 X199.041 Y157.18 E62.01858
G0 F3600 X198.475 Y157.18
G1 F1500 X209.318 Y168.023 E62.78361
G0 F3600 X209.318 Y168.589
G1 F1500 X197.909 Y157.18 E63.58858
G0 F3600 X197.344 Y157.18
G1 F1500 X209.318 Y169.154 E64.43341
G0 F3600 X209.318 Y169.72
G1 F1500 X196.778 Y157.18 E65.31817
G0 F3600 X196.212 Y157.18
G1 F1500 X209.318 Y170.286 E66.24287
G0 F3600 X209.318 Y170.851
G1 F1500 X195.647 Y157.18 E67.20743
G0 F3600 X195.081 Y157.18
G1 F1500 X209.318 Y171.417 E68.21193
G0 F3600 X209.318 Y171.983
G1 F1500 X194.515 Y157.18 E69.25636
G0 F3600 X193.95 Y157.18
G1 F1500 X209.318 Y172.548 E70.34066
G0 F3600 X209.318 Y173.114
G1 F1500 X193.384 Y157.18 E71.46489
G0 F3600 X192.818 Y157.18
G1 F1500 X209.318 Y173.68 E72.62905
G0 F3600 X209.318 Y174.245
G1 F1500 X192.253 Y157.18 E73.83308
G0 F3600 X191.687 Y157.18
G1 F1500 X209.318 Y174.811 E75.07704
G0 F3600 X209.318 Y175.377
G1 F1500 X191.121 Y157.18 E76.36094
G0 F3600 X190.556 Y157.18
G1 F1500 X209.318 Y175.943 E77.68474
G0 F3600 X209.318 Y176.508
G1 F1500 X189.99 Y157.18 E79.04843
G0 F3600 X189.424 Y157.18
G1 F1500 X209.318 Y177.074 E80.45206
G0 F3600 X209.318 Y177.64
G1 F1500 X188.859 Y157.18 E81.89559
G0 F3600 X188.293 Y157.18
G1 F1500 X209.318 Y178.205 E83.37901
G0 F3600 X209.318 Y178.771
G1 F1500 X187.727 Y157.18 E84.90238
G0 F3600 X187.161 Y157.18
G1 F1500 X209.318 Y179.337 E86.46567
G0 F3600 X209.318 Y179.902
G1 F1500 X186.596 Y157.18 E88.06883
G0 F3600 X186.03 Y157.18
G1 F1500 X209.318 Y180.468 E89.71193
G0 F3600 X209.318 Y181.034
G1 F1500 X185.464 Y157.18 E91.39496
G0 F3600 X184.899 Y157.18
G1 F1500 X209.318 Y181.599 E93.11785
G0 F3600 X209.289 Y182.136
G1 F1500 X184.333 Y157.18 E94.87863
G0 F3600 X183.767 Y157.18
G1 F1500 X209.108 Y182.521 E96.66657
G0 F3600 X208.774 Y182.753
G1 F1500 X183.202 Y157.18 E98.47085
G0 F3600 X182.636 Y157.18
G1 F1500 X208.274 Y182.818 E100.27975
G0 F3600 X207.708 Y182.818
G1 F1500 X182.07 Y157.18 E102.08865
G0 F3600 X181.505 Y157.18
G1 F1500 X207.142 Y182.818 E103.89751
G0 F3600 X206.577 Y182.818
G1 F1500 X180.939 Y157.18 E105.70641
G0 F3600 X180.373 Y157.18
G1 F1500 X206.011 Y182.818 E107.51531
G0 F3600 X205.445 Y182.818
G1 F1500 X179.808 Y157.18 E109.32418
G0 F3600 X179.242 Y157.18
G1 F1500 X204.879 Y182.818 E111.13304
G0 F3600 X204.314 Y182.818
G1 F1500 X178.676 Y157.18 E112.94194
G0 F3600 X178.111 Y157.18
G1 F1500 X203.748 Y182.818 E114.7508
G0 F3600 X203.182 Y182.818
G1 F1500 X177.545 Y157.18 E116.55967
G0 F3600 X176.979 Y157.18
G1 F1500 X202.617 Y182.818 E118.36857
G0 F3600 X202.051 Y182.818
G1 F1500 X176.413 Y157.18 E120.17747
G0 F3600 X175.848 Y157.18
G1 F1500 X201.485 Y182.818 E121.98633
G0 F3600 X200.92 Y182.818
G1 F1500 X175.282 Y157.18 E123.79523
G0 F3600 X174.716 Y157.18
G1 F1500 X200.354 Y182.818 E125.60413
G0 F3600 X199.788 Y182.818
G1 F1500 X174.151 Y157.18 E127.41299
G0 F3600 X173.585 Y157.18
G1 F1500 X199.223 Y182.818 E129.22189
G0 F3600 X198.657 Y182.818
G1 F1500 X173.019 Y157.18 E131.03079
G0 F3600 X172.454 Y157.18
G1 F1500 X198.091 Y182.818 E132.83966
G0 F3600 X197.526 Y182.818
G1 F1500 X171.888 Y157.18 E134.64856
G0 F3600 X171.322 Y157.18
G1 F1500 X196.96 Y182.818 E136.45745
G0 F3600 X196.394 Y182.818
G1 F1500 X170.757 Y157.18 E138.26632
G0 F3600 X170.191 Y157.18
G1 F1500 X195.828 Y182.818 E140.07518
G0 F3600 X195.263 Y182.818
G1 F1500 X169.625 Y157.18 E141.88408
G0 F3600 X169.06 Y157.18
G1 F1500 X194.697 Y182.818 E143.69295
G0 F3600 X194.131 Y182.818
G1 F1500 X168.494 Y157.18 E145.50181
G0 F3600 X167.928 Y157.18
G1 F1500 X193.566 Y182.818 E147.31071
G0 F3600 X193 Y182.818
G1 F1500 X167.362 Y157.18 E149.11961
G0 F3600 X166.797 Y157.18
G1 F1500 X192.434 Y182.818 E150.92847
G0 F3600 X191.869 Y182.818
G1 F1500 X166.231 Y157.18 E152.73737
G0 F3600 X165.665 Y157.18
G1 F1500 X191.303 Y182.818 E154.54627
G0 F3600 X190.737 Y182.818
G1 F1500 X165.1 Y157.18 E156.35514
G0 F3600 X164.534 Y157.18
G1 F1500 X190.172 Y182.818 E158.16404
G0 F3600 X189.606 Y182.818
G1 F1500 X163.968 Y157.18 E159.97294
G0 F3600 X163.403 Y157.18
G1 F1500 X189.04 Y182.818 E161.7818
G0 F3600 X188.475 Y182.818
G1 F1500 X162.837 Y157.18 E163.5907
G0 F3600 X162.271 Y157.18
G1 F1500 X187.909 Y182.818 E165.3996
G0 F3600 X187.343 Y182.818
G1 F1500 X161.706 Y157.18 E167.20846
G0 F3600 X161.14 Y157.18
G1 F1500 X186.778 Y182.818 E169.01736
G0 F3600 X186.212 Y182.818
G1 F1500 X160.574 Y157.18 E170.82626
G0 F3600 X160.009 Y157.18
G1 F1500 X185.646 Y182.818 E172.63512
G0 F3600 X185.08 Y182.818
G1 F1500 X159.443 Y157.18 E174.44399
G0 F3600 X158.877 Y157.18
G1 F1500 X184.515 Y182.818 E176.25289
G0 F3600 X183.949 Y182.818
G1 F1500 X158.312 Y157.18 E178.06175
G0 F3600 X157.746 Y157.18
G1 F1500 X183.383 Y182.818 E179.87062
G0 F3600 X182.818 Y182.818
G1 F1500 X157.18 Y157.18 E181.67952
G0 F3600 X156.614 Y157.18
G1 F1500 X182.252 Y182.818 E183.48842
G0 F3600 X181.686 Y182.818
G1 F1500 X156.049 Y157.18 E185.29728
G0 F3600 X155.483 Y157.18
G1 F1500 X181.121 Y182.818 E187.10618
G0 F3600 X180.555 Y182.818
G1 F1500 X154.917 Y157.18 E188.91508
G0 F3600 X154.352 Y157.18
G1 F1500 X179.989 Y182.818 E190.72394
G0 F3600 X179.424 Y182.818
G1 F1500 X153.786 Y157.18 E192.53284
G0 F3600 X153.22 Y157.18
G1 F1500 X178.858 Y182.818 E194.34174
G0 F3600 X178.292 Y182.818
G1 F1500 X152.655 Y157.18 E196.15061
G0 F3600 X152.089 Y157.18
G1 F1500 X177.727 Y182.818 E197.9595
G0 F3600 X177.161 Y182.818
G1 F1500 X151.523 Y157.18 E199.7684
G0 F3600 X150.958 Y157.18
G1 F1500 X176.595 Y182.818 E201.57727
G0 F3600 X176.029 Y182.818
G1 F1500 X150.392 Y157.18 E203.38613
G0 F3600 X149.826 Y157.18
G1 F1500 X175.464 Y182.818 E205.19503
G0 F3600 X174.898 Y182.818
G1 F1500 X149.261 Y157.18 E207.0039
G0 F3600 X148.695 Y157.18
G1 F1500 X174.332 Y182.818 E208.81276
G0 F3600 X173.767 Y182.818
G1 F1500 X148.129 Y157.18 E210.62166
G0 F3600 X147.563 Y157.18
G1 F1500 X173.201 Y182.818 E212.43056
G0 F3600 X172.635 Y182.818
G1 F1500 X146.998 Y157.18 E214.23942
G0 F3600 X146.432 Y157.18
G1 F1500 X172.07 Y182.818 E216.04832
G0 F3600 X171.504 Y182.818
G1 F1500 X145.866 Y157.18 E217.85722
G0 F3600 X145.301 Y157.18
G1 F1500 X170.938 Y182.818 E219.66609
G0 F3600 X170.373 Y182.818
G1 F1500 X144.735 Y157.18 E221.47498
G0 F3600 X144.169 Y157.18
G1 F1500 X169.807 Y182.818 E223.28388
G0 F3600 X169.241 Y182.818
G1 F1500 X143.604 Y157.18 E225.09275
G0 F3600 X143.038 Y157.18
G1 F1500 X168.676 Y182.818 E226.90165
G0 F3600 X168.11 Y182.818
G1 F1500 X142.472 Y157.18 E228.71055
G0 F3600 X141.907 Y157.18
G1 F1500 X167.544 Y182.818 E230.51941
G0 F3600 X166.979 Y182.818
G1 F1500 X141.341 Y157.18 E232.32831
G0 F3600 X140.775 Y157.18
G1 F1500 X166.413 Y182.818 E234.13721
G0 F3600 X165.847 Y182.818
G1 F1500 X140.21 Y157.18 E235.94607
G0 F3600 X139.644 Y157.18
G1 F1500 X165.281 Y182.818 E237.75494
G0 F3600 X164.716 Y182.818
G1 F1500 X139.078 Y157.18 E239.56384
G0 F3600 X138.513 Y157.18
G1 F1500 X164.15 Y182.818 E241.3727
G0 F3600 X163.584 Y182.818
G1 F1500 X137.947 Y157.18 E243.18157
G0 F3600 X137.381 Y157.18
G1 F1500 X163.019 Y182.818 E244.99046
G0 F3600 X162.453 Y182.818
G1 F1500 X136.815 Y157.18 E246.79936
G0 F3600 X136.25 Y157.18
G1 F1500 X161.887 Y182.818 E248.60823
G0 F3600 X161.322 Y182.818
G1 F1500 X135.684 Y157.18 E250.41713
G0 F3600 X135.118 Y157.18
G1 F1500 X160.756 Y182.818 E252.22603
G0 F3600 X160.19 Y182.818
G1 F1500 X134.553 Y157.18 E254.03489
G0 F3600 X133.987 Y157.18
G1 F1500 X159.625 Y182.818 E255.84379
G0 F3600 X159.059 Y182.818
G1 F1500 X133.421 Y157.18 E257.65269
G0 F3600 X132.856 Y157.18
G1 F1500 X158.493 Y182.818 E259.46155
G0 F3600 X157.928 Y182.818
G1 F1500 X132.29 Y157.18 E261.27045
G0 F3600 X131.724 Y157.18
G1 F1500 X157.362 Y182.818 E263.07935
G0 F3600 X156.796 Y182.818
G1 F1500 X131.224 Y157.245 E264.88363
G0 F3600 X130.89 Y157.477
G1 F1500 X156.231 Y182.818 E266.67158
G0 F3600 X155.665 Y182.818
G1 F1500 X130.71 Y157.863 E268.43229
G0 F3600 X130.681 Y158.4
G1 F1500 X155.099 Y182.818 E270.15511
G0 F3600 X154.533 Y182.818
G1 F1500 X130.681 Y158.966 E271.83799
G0 F3600 X130.681 Y159.531
G1 F1500 X153.968 Y182.818 E273.48102
G0 F3600 X153.402 Y182.818
G1 F1500 X130.681 Y160.097 E275.08411
G0 F3600 X130.681 Y160.663
G1 F1500 X152.836 Y182.818 E276.64726
G0 F3600 X152.271 Y182.818
G1 F1500 X130.681 Y161.228 E278.17055
G0 F3600 X130.681 Y161.794
G1 F1500 X151.705 Y182.818 E279.65391
G0 F3600 X151.139 Y182.818
G1 F1500 X130.681 Y162.36 E281.09733
G0 F3600 X130.681 Y162.925
G1 F1500 X150.574 Y182.818 E282.50089
G0 F3600 X150.008 Y182.818
G1 F1500 X130.681 Y163.491 E283.86452
G0 F3600 X130.681 Y164.057
G1 F1500 X149.442 Y182.818 E285.18821
G0 F3600 X148.877 Y182.818
